public/images/Receptionist.svg

<svg width="428" height="428" viewBox="0 0 428 428" fill="none" xmlns="http://www.w3.org/2000/svg">
<g id="Receptionist 1">
<g id="clock">
<path id="Vector" d="M83.8022 141.685C108.211 141.685 127.997 121.898 127.997 97.4897C127.997 73.0813 108.211 53.2944 83.8022 53.2944C59.3938 53.2944 39.6069 73.0813 39.6069 97.4897C39.6069 121.898 59.3938 141.685 83.8022 141.685Z" fill="#E6E6E6"/>
<path id="Vector_2" d="M83.8024 127.227C100.226 127.227 113.54 113.913 113.54 97.4899C113.54 81.0663 100.226 67.7524 83.8024 67.7524C67.3788 67.7524 54.0649 81.0663 54.0649 97.4899C54.0649 113.913 67.3788 127.227 83.8024 127.227Z" fill="white"/>
<path id="Vector_3" d="M92.0282 106.135C91.643 106.135 91.2578 106.007 90.9496 105.742L82.7235 98.7739C82.3468 98.4571 82.1328 97.9863 82.1328 97.4984V76.9202C82.1328 75.9957 82.8861 75.251 83.802 75.251C84.7179 75.251 85.4712 75.9957 85.4712 76.9202V96.728L93.0982 103.191C93.8001 103.79 93.8943 104.843 93.2951 105.545C92.9612 105.939 92.4904 106.135 92.0196 106.135H92.0282Z" fill="#A5A5A5"/>
</g>
<g id="screen">
<path id="Vector_4" d="M409.527 52.4131H302.767V190.049H409.527V52.4131Z" fill="#E6E6E6"/>
<path id="Vector_5" d="M389.882 96.8564H322.404V167.382H389.882V96.8564Z" fill="white"/>
<path id="Vector_6" opacity="0.08" d="M306.645 123.958C306.645 123.958 349.599 124.582 354.127 190.049H327.078L306.636 123.958H306.645Z" fill="#000001"/>
<path id="Vector_7" d="M373.156 73.2227H337.512V83.5118H373.156V73.2227Z" fill="#A5A5A5"/>
</g>
<g id="receptionist">
<path id="Vector_8" d="M213.435 119.378C213.435 119.378 177.081 130.497 180.95 162.726C184.819 194.954 123.384 317.824 72.5202 192.943L55.9053 202.05C55.9053 202.05 83.6054 298.693 147.052 275.024C210.499 251.356 228.946 192.352 213.435 119.378Z" fill="#93CA88"/>
<path id="Vector_9" opacity="0.2" d="M147.052 275.024C210.499 251.356 228.946 192.352 213.435 119.378C213.435 119.378 177.081 130.497 180.95 162.726" fill="white"/>
<path id="Vector_10" d="M194.534 84.5728L193.208 89.0668C192.882 90.1796 193.815 91.2496 194.962 91.0784L198.754 90.4963L194.534 84.5728Z" fill="#F4A28C"/>
<path id="Vector_11" d="M192.3 77.5622C192.3 77.5622 195.117 88.519 199.397 94.9647C201.134 97.5755 204.712 98.2945 207.298 96.5226C210.508 94.3227 214.214 90.4107 213.418 84.3588L213.332 73.9156C213.332 73.9156 213.05 67.3758 205.509 65.1673C197.967 62.9588 190.255 70.9795 192.3 77.5622Z" fill="#F4A28C"/>
<path id="Vector_12" d="M215.079 78.3584L232.575 111.914L213.435 119.378L207.708 87.8343L215.079 78.3584Z" fill="#F4A28C"/>
<path id="Vector_13" d="M205.911 84.8383C205.911 84.8383 204.541 80.7039 207.743 79.9335C210.944 79.1631 212.947 85.1294 208.95 87.1581L205.911 84.8383Z" fill="#F4A28C"/>
<path id="Vector_14" opacity="0.31" d="M209.043 95.1702C209.043 95.1702 213.024 91.8232 213.024 86.6958C213.024 86.6958 218.014 94.862 210.139 101.222L209.043 95.1702Z" fill="#CE8172"/>
<path id="Vector_15" d="M411.993 288.113H15.9985V318.03H411.993V288.113Z" fill="#142A6F"/>
<path id="Vector_16" d="M213.435 119.378L232.584 111.905C232.584 111.905 279.749 99.5274 307.698 125.969C335.646 152.403 297.126 288.113 297.126 288.113H195.391L174.684 233.106C163.984 204.687 169.325 172.724 188.68 149.321L213.444 119.378H213.435Z" fill="#93CA88"/>
<path id="Vector_17" opacity="0.08" d="M272.833 137.551C272.833 137.551 249.781 164.746 262.372 221.139C269.529 253.188 221.139 267.517 221.139 267.517L218.631 288.113H306.191V251.442L272.841 137.559L272.833 137.551Z" fill="#000001"/>
<path id="Vector_18" opacity="0.38" d="M232.575 111.914C232.575 111.914 251.416 132.398 236.684 169.411C221.952 206.425 214.402 232.858 216.671 252.503L191.966 248.728C191.966 248.728 178.69 215.866 187.669 179.991C196.657 144.108 200.355 138.492 213.426 119.395L232.575 111.922V111.914Z" fill="white"/>
<path id="Vector_19" d="M272.833 137.551C274.511 120.953 293.933 113.146 306.645 123.949C318.646 134.144 329.791 152.916 328.345 187.404C326.59 229.194 323.346 256.398 320.932 271.874C319.545 280.751 311.002 286.649 302.211 284.783L209.095 264.958L211.809 247.255L292.598 254.386C292.598 254.386 267.902 186.308 272.842 137.559L272.833 137.551Z" fill="#93CA88"/>
<path id="Vector_20" opacity="0.2" d="M272.833 137.551C274.511 120.953 293.933 113.146 306.645 123.949C318.646 134.144 329.791 152.916 328.345 187.404C326.59 229.194 323.346 256.398 320.932 271.874C319.545 280.751 311.002 286.649 302.211 284.783L209.095 264.958L211.809 247.255L292.598 254.386C292.598 254.386 267.902 186.308 272.842 137.559L272.833 137.551Z" fill="white"/>
<path id="Vector_21" d="M411.993 317.833H15.9985V388.641H411.993V317.833Z" fill="#142A6F"/>
<path id="Vector_22" opacity="0.11" d="M411.993 317.833H15.9985V388.641H411.993V317.833Z" fill="white"/>
<path id="Vector_23" d="M112.307 288.112L99.5356 206.39H213.717L222.089 277.49H262.373V288.112H112.307Z" fill="#FFD200"/>
<path id="Vector_24" d="M191.795 78.2812C194.654 80.9605 199.448 83.0749 206.775 79.4882L217.064 81.5854C217.064 81.5854 222.046 77.0914 219.915 66.1689C217.783 55.2549 209.309 48.8006 196.717 54.5701C189.57 57.84 187.832 63.4468 187.678 67.6754C187.532 71.6301 188.902 75.5677 191.795 78.2727V78.2812Z" fill="#FFD200"/>
<path id="Vector_25" d="M210.379 53.7826C210.379 53.7826 205.8 40.5488 218.674 39.4189C231.548 38.289 239.149 53.3803 217.587 62.2827L210.379 53.774V53.7826Z" fill="#FFD200"/>
<path id="Vector_26" d="M209.651 50.1362C209.651 50.1362 221.284 50.7868 221.13 60.6308L217.997 63.4813L208.282 52.9696L209.643 50.1362H209.651Z" fill="#142A6F"/>
<path id="Vector_27" d="M232.575 111.914L213.427 119.386C213.427 119.386 205.637 130.566 218.819 131.567C232.002 132.569 236.23 118.933 232.575 111.914Z" fill="white"/>
<path id="Vector_28" d="M156.622 256.826C161.908 256.826 166.192 252.541 166.192 247.256C166.192 241.97 161.908 237.686 156.622 237.686C151.337 237.686 147.052 241.97 147.052 247.256C147.052 252.541 151.337 256.826 156.622 256.826Z" fill="white"/>
<path id="Vector_29" d="M216.474 147.121C219.05 147.121 221.139 145.032 221.139 142.456C221.139 139.879 219.05 137.791 216.474 137.791C213.897 137.791 211.809 139.879 211.809 142.456C211.809 145.032 213.897 147.121 216.474 147.121Z" fill="white"/>
<path id="Vector_30" d="M211.15 172.056C213.726 172.056 215.815 169.967 215.815 167.391C215.815 164.814 213.726 162.726 211.15 162.726C208.573 162.726 206.484 164.814 206.484 167.391C206.484 169.967 208.573 172.056 211.15 172.056Z" fill="white"/>
<path id="Vector_31" d="M205.62 197.205C208.196 197.205 210.285 195.117 210.285 192.54C210.285 189.964 208.196 187.875 205.62 187.875C203.043 187.875 200.955 189.964 200.955 192.54C200.955 195.117 203.043 197.205 205.62 197.205Z" fill="white"/>
<path id="Vector_32" d="M70.7138 193.944C70.7138 193.944 67.1186 169.788 59.5602 169.788C52.0017 169.788 59.5602 184.143 59.5602 184.143C59.5602 184.143 45.3762 188.671 57.9423 200.946L70.7138 193.952V193.944Z" fill="#F4A28C"/>
<path id="Vector_33" d="M376.477 271.814H293.266V288.113H376.477V271.814Z" fill="#93CA88"/>
<path id="Vector_34" d="M384.635 255.507H301.423V271.806H384.635V255.507Z" fill="#93CA88"/>
<path id="Vector_35" opacity="0.17" d="M376.477 271.814H293.266V288.113H376.477V271.814Z" fill="#000001"/>
<path id="Vector_36" opacity="0.08" d="M384.635 255.507H301.423V271.806H384.635V255.507Z" fill="#000001"/>
<path id="Vector_37" opacity="0.08" d="M102.626 226.172C102.626 226.172 117.948 280.049 202.752 288.113H112.307L102.626 226.172Z" fill="#000001"/>
<path id="Vector_38" opacity="0.08" d="M98.4568 236.282L99.5268 269.803C99.5268 269.803 104.175 273.107 110.33 275.512L105.065 241.846L98.4482 236.282H98.4568Z" fill="#000001"/>
</g>
</g>
</svg>

<svg xmlns="http://www.w3.org/2000/svg" width="428" height="428" fill="none"><path fill="#E6E6E6" d="M83.802 141.685c24.409 0 44.195-19.787 44.195-44.195s-19.786-44.196-44.195-44.196S39.607 73.081 39.607 97.49s19.787 44.195 44.195 44.195"/><path fill="#fff" d="M83.802 127.227c16.424 0 29.738-13.314 29.738-29.737 0-16.424-13.314-29.738-29.738-29.738-16.423 0-29.737 13.314-29.737 29.738 0 16.423 13.314 29.737 29.737 29.737"/><path fill="#A5A5A5" d="M92.028 106.135c-.385 0-.77-.128-1.078-.393l-8.227-6.968a1.67 1.67 0 0 1-.59-1.276V76.92c0-.924.753-1.669 1.669-1.669s1.67.745 1.67 1.67v19.807l7.626 6.463a1.67 1.67 0 0 1-1.078 2.944z"/><path fill="#E6E6E6" d="M409.527 52.413h-106.76V190.05h106.76z"/><path fill="#fff" d="M389.882 96.856h-67.478v70.526h67.478z"/><path fill="#000001" d="M306.645 123.958s42.954.624 47.482 66.091h-27.049l-20.442-66.091z" opacity=".08"/><path fill="#A5A5A5" d="M373.156 73.223h-35.644v10.289h35.644z"/><path fill="#93CA88" d="M213.435 119.378s-36.354 11.119-32.485 43.348-57.566 155.098-108.43 30.217l-16.615 9.107s27.7 96.643 91.147 72.974 81.894-82.672 66.383-155.646"/><path fill="#fff" d="M147.052 275.024c63.447-23.668 81.894-82.672 66.383-155.646 0 0-36.354 11.119-32.485 43.348" opacity=".2"/><path fill="#F4A28C" d="m194.534 84.573-1.326 4.494a1.58 1.58 0 0 0 1.754 2.011l3.792-.582z"/><path fill="#F4A28C" d="M192.3 77.562s2.817 10.957 7.097 17.403c1.737 2.61 5.315 3.33 7.901 1.558 3.21-2.2 6.916-6.112 6.12-12.164l-.086-10.443s-.282-6.54-7.823-8.749c-7.542-2.208-15.254 5.813-13.209 12.395"/><path fill="#F4A28C" d="m215.079 78.358 17.496 33.556-19.14 7.464-5.727-31.544z"/><path fill="#F4A28C" d="M205.911 84.838s-1.37-4.134 1.832-4.904 5.204 5.195 1.207 7.224z"/><path fill="#CE8172" d="M209.043 95.17s3.981-3.347 3.981-8.474c0 0 4.99 8.166-2.885 14.526z" opacity=".31"/><path fill="#142A6F" d="M411.993 288.113H15.999v29.917h395.994z"/><path fill="#93CA88" d="m213.435 119.378 19.149-7.473s47.165-12.378 75.114 14.064c27.948 26.434-10.572 162.144-10.572 162.144H195.391l-20.707-55.007a84.65 84.65 0 0 1 13.996-83.785l24.764-29.943z"/><path fill="#000001" d="M272.833 137.551s-23.052 27.195-10.461 83.588c7.157 32.049-41.233 46.378-41.233 46.378l-2.508 20.596h87.56v-36.671l-33.35-113.883z" opacity=".08"/><path fill="#fff" d="M232.575 111.914s18.841 20.484 4.109 57.497c-14.732 37.014-22.282 63.447-20.013 83.092l-24.705-3.775s-13.276-32.862-4.297-68.737c8.988-35.883 12.686-41.499 25.757-60.596l19.149-7.473z" opacity=".38"/><path fill="#93CA88" d="M272.833 137.551c1.678-16.598 21.1-24.405 33.812-13.602 12.001 10.195 23.146 28.967 21.7 63.455-1.755 41.79-4.999 68.994-7.413 84.47-1.387 8.877-9.93 14.775-18.721 12.909l-93.116-19.825 2.714-17.703 80.789 7.131s-24.696-68.078-19.756-116.827z"/><path fill="#fff" d="M272.833 137.551c1.678-16.598 21.1-24.405 33.812-13.602 12.001 10.195 23.146 28.967 21.7 63.455-1.755 41.79-4.999 68.994-7.413 84.47-1.387 8.877-9.93 14.775-18.721 12.909l-93.116-19.825 2.714-17.703 80.789 7.131s-24.696-68.078-19.756-116.827z" opacity=".2"/><path fill="#142A6F" d="M411.993 317.833H15.999v70.808h395.994z"/><path fill="#fff" d="M411.993 317.833H15.999v70.808h395.994z" opacity=".11"/><path fill="#FFD200" d="M112.307 288.112 99.536 206.39h114.181l8.372 71.1h40.284v10.622zM191.795 78.281c2.859 2.68 7.653 4.794 14.98 1.207l10.289 2.097s4.982-4.494 2.851-15.416c-2.132-10.914-10.606-17.368-23.198-11.599-7.147 3.27-8.885 8.877-9.039 13.105-.146 3.955 1.224 7.893 4.117 10.598z"/><path fill="#FFD200" d="M210.379 53.783s-4.579-13.234 8.295-14.364 20.475 13.961-1.087 22.864l-7.208-8.509z"/><path fill="#142A6F" d="M209.651 50.136s11.633.65 11.479 10.495l-3.133 2.85-9.715-10.511 1.361-2.834z"/><path fill="#fff" d="m232.575 111.914-19.148 7.472s-7.79 11.18 5.392 12.181c13.183 1.002 17.411-12.634 13.756-19.653M156.622 256.826a9.57 9.57 0 0 0 9.57-9.57 9.57 9.57 0 0 0-9.57-9.57 9.57 9.57 0 0 0-9.57 9.57c0 5.285 4.285 9.57 9.57 9.57M216.474 147.121a4.666 4.666 0 1 0-.001-9.331 4.666 4.666 0 0 0 .001 9.331M211.15 172.056a4.666 4.666 0 1 0-.001-9.331 4.666 4.666 0 0 0 .001 9.331M205.62 197.205a4.665 4.665 0 1 0 0-9.33 4.665 4.665 0 0 0 0 9.33"/><path fill="#F4A28C" d="M70.714 193.944s-3.595-24.156-11.154-24.156 0 14.355 0 14.355-14.184 4.528-1.618 16.803l12.772-6.994z"/><path fill="#93CA88" d="M376.477 271.814h-83.211v16.299h83.211zM384.635 255.507h-83.212v16.299h83.212z"/><path fill="#000001" d="M376.477 271.814h-83.211v16.299h83.211z" opacity=".17"/><path fill="#000001" d="M384.635 255.507h-83.212v16.299h83.212zM102.626 226.172s15.322 53.877 100.126 61.941h-90.445zM98.457 236.282l1.07 33.521s4.648 3.304 10.803 5.709l-5.265-33.666-6.617-5.564z" opacity=".08"/></svg>
